layout/main/dist/assets/main/img/services/cms.svg

<svg width="100" height="100" viewBox="0 0 100 100" fill="none" xmlns="http://www.w3.org/2000/svg">
<g opacity="0.6">
<path d="M95.875 51.5625H90.25C89.4758 48.3267 88.2112 45.2284 86.5 42.375L90.5 38.375C90.791 38.0822 90.9544 37.6862 90.9544 37.2734C90.9544 36.8606 90.791 36.4646 90.5 36.1719L81.6563 27.3281C81.3635 27.0371 80.9675 26.8738 80.5547 26.8738C80.1419 26.8738 79.7459 27.0371 79.4531 27.3281L75.4531 31.3281C72.5803 29.5823 69.4548 28.2911 66.1875 27.5V21.875C66.1875 21.4606 66.0229 21.0632 65.7299 20.7701C65.4368 20.4771 65.0394 20.3125 64.625 20.3125H52.125C51.7106 20.3125 51.3132 20.4771 51.0201 20.7701C50.7271 21.0632 50.5625 21.4606 50.5625 21.875V27.5C47.3222 28.2986 44.2237 29.5897 41.375 31.3281L37.375 27.3281C37.0822 27.0371 36.6862 26.8738 36.2734 26.8738C35.8606 26.8738 35.4646 27.0371 35.1719 27.3281L26.3281 36.1719C26.0371 36.4646 25.8738 36.8606 25.8738 37.2734C25.8738 37.6862 26.0371 38.0822 26.3281 38.375L30.3281 42.375C28.5897 45.2237 27.2986 48.3222 26.5 51.5625H20.875C20.4606 51.5625 20.0632 51.7271 19.7701 52.0201C19.4771 52.3132 19.3125 52.7106 19.3125 53.125V65.625C19.3125 66.0394 19.4771 66.4368 19.7701 66.7299C20.0632 67.0229 20.4606 67.1875 20.875 67.1875H26.5C27.2986 70.4278 28.5897 73.5263 30.3281 76.375L26.3281 80.375C26.0371 80.6678 25.8738 81.0638 25.8738 81.4766C25.8738 81.8894 26.0371 82.2854 26.3281 82.5781L35.1719 91.4219C35.4646 91.7129 35.8606 91.8762 36.2734 91.8762C36.6862 91.8762 37.0822 91.7129 37.375 91.4219L41.375 87.5C44.2284 89.2112 47.3267 90.4758 50.5625 91.25V96.875C50.5625 97.2894 50.7271 97.6868 51.0201 97.9799C51.3132 98.2729 51.7106 98.4375 52.125 98.4375H64.625C65.0394 98.4375 65.4368 98.2729 65.7299 97.9799C66.0229 97.6868 66.1875 97.2894 66.1875 96.875V91.25C69.4233 90.4758 72.5216 89.2112 75.375 87.5L79.375 91.5C79.6678 91.791 80.0638 91.9544 80.4766 91.9544C80.8894 91.9544 81.2854 91.791 81.5781 91.5L90.4219 82.6563C90.7129 82.3635 90.8762 81.9675 90.8762 81.5547C90.8762 81.1419 90.7129 80.7459 90.4219 80.4531L86.5 76.375C88.2112 73.5216 89.4758 70.4233 90.25 67.1875H95.875C96.2894 67.1875 96.6868 67.0229 96.9799 66.7299C97.2729 66.4368 97.4375 66.0394 97.4375 65.625V53.125C97.4375 52.7106 97.2729 52.3132 96.9799 52.0201C96.6868 51.7271 96.2894 51.5625 95.875 51.5625ZM58.375 71.875C55.9027 71.875 53.486 71.1419 51.4304 69.7684C49.3748 68.3949 47.7726 66.4426 46.8265 64.1585C45.8804 61.8745 45.6329 59.3611 46.1152 56.9364C46.5975 54.5116 47.788 52.2843 49.5362 50.5362C51.2843 48.788 53.5116 47.5975 55.9364 47.1152C58.3611 46.6329 60.8745 46.8804 63.1585 47.8265C65.4426 48.7726 67.3949 50.3748 68.7684 52.4304C70.1419 54.486 70.875 56.9027 70.875 59.375C70.875 62.6902 69.558 65.8696 67.2138 68.2138C64.8696 70.558 61.6902 71.875 58.375 71.875Z" fill="#C4A2FC"/>
<path d="M95.875 51.5625H90.25C89.4758 48.3267 88.2112 45.2284 86.5 42.375L90.5 38.375C90.791 38.0822 90.9544 37.6862 90.9544 37.2734C90.9544 36.8606 90.791 36.4646 90.5 36.1719L81.6563 27.3281C81.3635 27.0371 80.9675 26.8738 80.5547 26.8738C80.1419 26.8738 79.7459 27.0371 79.4531 27.3281L75.4531 31.3281C72.5803 29.5823 69.4548 28.2911 66.1875 27.5V21.875C66.1875 21.4606 66.0229 21.0632 65.7299 20.7701C65.4368 20.4771 65.0394 20.3125 64.625 20.3125H52.125C51.7106 20.3125 51.3132 20.4771 51.0201 20.7701C50.7271 21.0632 50.5625 21.4606 50.5625 21.875V27.5C47.3222 28.2986 44.2237 29.5897 41.375 31.3281L37.375 27.3281C37.0822 27.0371 36.6862 26.8738 36.2734 26.8738C35.8606 26.8738 35.4646 27.0371 35.1719 27.3281L26.3281 36.1719C26.0371 36.4646 25.8738 36.8606 25.8738 37.2734C25.8738 37.6862 26.0371 38.0822 26.3281 38.375L30.3281 42.375C28.5897 45.2237 27.2986 48.3222 26.5 51.5625H20.875C20.4606 51.5625 20.0632 51.7271 19.7701 52.0201C19.4771 52.3132 19.3125 52.7106 19.3125 53.125V65.625C19.3125 66.0394 19.4771 66.4368 19.7701 66.7299C20.0632 67.0229 20.4606 67.1875 20.875 67.1875H26.5C27.2986 70.4278 28.5897 73.5263 30.3281 76.375L26.3281 80.375C26.0371 80.6678 25.8738 81.0638 25.8738 81.4766C25.8738 81.8894 26.0371 82.2854 26.3281 82.5781L35.1719 91.4219C35.4646 91.7129 35.8606 91.8762 36.2734 91.8762C36.6862 91.8762 37.0822 91.7129 37.375 91.4219L41.375 87.5C44.2284 89.2112 47.3267 90.4758 50.5625 91.25V96.875C50.5625 97.2894 50.7271 97.6868 51.0201 97.9799C51.3132 98.2729 51.7106 98.4375 52.125 98.4375H64.625C65.0394 98.4375 65.4368 98.2729 65.7299 97.9799C66.0229 97.6868 66.1875 97.2894 66.1875 96.875V91.25C69.4233 90.4758 72.5216 89.2112 75.375 87.5L79.375 91.5C79.6678 91.791 80.0638 91.9544 80.4766 91.9544C80.8894 91.9544 81.2854 91.791 81.5781 91.5L90.4219 82.6563C90.7129 82.3635 90.8762 81.9675 90.8762 81.5547C90.8762 81.1419 90.7129 80.7459 90.4219 80.4531L86.5 76.375C88.2112 73.5216 89.4758 70.4233 90.25 67.1875H95.875C96.2894 67.1875 96.6868 67.0229 96.9799 66.7299C97.2729 66.4368 97.4375 66.0394 97.4375 65.625V53.125C97.4375 52.7106 97.2729 52.3132 96.9799 52.0201C96.6868 51.7271 96.2894 51.5625 95.875 51.5625ZM58.375 71.875C55.9027 71.875 53.486 71.1419 51.4304 69.7684C49.3748 68.3949 47.7726 66.4426 46.8265 64.1585C45.8804 61.8745 45.6329 59.3611 46.1152 56.9364C46.5975 54.5116 47.788 52.2843 49.5362 50.5362C51.2843 48.788 53.5116 47.5975 55.9364 47.1152C58.3611 46.6329 60.8745 46.8804 63.1585 47.8265C65.4426 48.7726 67.3949 50.3748 68.7684 52.4304C70.1419 54.486 70.875 56.9027 70.875 59.375C70.875 62.6902 69.558 65.8696 67.2138 68.2138C64.8696 70.558 61.6902 71.875 58.375 71.875Z" fill="url(#paint0_linear)"/>
</g>
<path d="M73.4375 1.5625H4.6875C3.4443 1.5625 2.25201 2.05636 1.37294 2.93544C0.49386 3.81451 0 5.0068 0 6.25V75C0 76.2432 0.49386 77.4355 1.37294 78.3146C2.25201 79.1936 3.4443 79.6875 4.6875 79.6875H73.4375C74.6807 79.6875 75.873 79.1936 76.7521 78.3146C77.6311 77.4355 78.125 76.2432 78.125 75V6.25C78.125 5.0068 77.6311 3.81451 76.7521 2.93544C75.873 2.05636 74.6807 1.5625 73.4375 1.5625ZM75 75C75 75.4144 74.8354 75.8118 74.5424 76.1049C74.2493 76.3979 73.8519 76.5625 73.4375 76.5625H4.6875C4.2731 76.5625 3.87567 76.3979 3.58265 76.1049C3.28962 75.8118 3.125 75.4144 3.125 75V15.625H75V75ZM75 12.5H3.125V6.25C3.125 5.8356 3.28962 5.43817 3.58265 5.14515C3.87567 4.85212 4.2731 4.6875 4.6875 4.6875H73.4375C73.8519 4.6875 74.2493 4.85212 74.5424 5.14515C74.8354 5.43817 75 5.8356 75 6.25V12.5Z" fill="white"/>
<path d="M43.75 54.6875H64.0625C64.4769 54.6875 64.8743 54.5229 65.1674 54.2299C65.4604 53.9368 65.625 53.5394 65.625 53.125V34.375C65.625 33.9606 65.4604 33.5632 65.1674 33.2701C64.8743 32.9771 64.4769 32.8125 64.0625 32.8125H43.75C43.3356 32.8125 42.9382 32.9771 42.6451 33.2701C42.3521 33.5632 42.1875 33.9606 42.1875 34.375V53.125C42.1875 53.5394 42.3521 53.9368 42.6451 54.2299C42.9382 54.5229 43.3356 54.6875 43.75 54.6875ZM45.3125 35.9375H62.5V51.5625H45.3125V35.9375Z" fill="white"/>
<path d="M14.0625 40.625H34.375C34.7894 40.625 35.1868 40.4604 35.4799 40.1674C35.7729 39.8743 35.9375 39.4769 35.9375 39.0625V21.875C35.9375 21.4606 35.7729 21.0632 35.4799 20.7701C35.1868 20.4771 34.7894 20.3125 34.375 20.3125H14.0625C13.6481 20.3125 13.2507 20.4771 12.9576 20.7701C12.6646 21.0632 12.5 21.4606 12.5 21.875V39.0625C12.5 39.4769 12.6646 39.8743 12.9576 40.1674C13.2507 40.4604 13.6481 40.625 14.0625 40.625ZM15.625 23.4375H32.8125V37.5H15.625V23.4375Z" fill="white"/>
<path d="M43.75 62.5H64.0625C64.4769 62.5 64.8743 62.3354 65.1674 62.0424C65.4604 61.7493 65.625 61.3519 65.625 60.9375C65.625 60.5231 65.4604 60.1257 65.1674 59.8326C64.8743 59.5396 64.4769 59.375 64.0625 59.375H43.75C43.3356 59.375 42.9382 59.5396 42.6451 59.8326C42.3521 60.1257 42.1875 60.5231 42.1875 60.9375C42.1875 61.3519 42.3521 61.7493 42.6451 62.0424C42.9382 62.3354 43.3356 62.5 43.75 62.5Z" fill="white"/>
<path d="M14.0625 48.4375H34.375C34.7894 48.4375 35.1868 48.2729 35.4799 47.9799C35.7729 47.6868 35.9375 47.2894 35.9375 46.875C35.9375 46.4606 35.7729 46.0632 35.4799 45.7701C35.1868 45.4771 34.7894 45.3125 34.375 45.3125H14.0625C13.6481 45.3125 13.2507 45.4771 12.9576 45.7701C12.6646 46.0632 12.5 46.4606 12.5 46.875C12.5 47.2894 12.6646 47.6868 12.9576 47.9799C13.2507 48.2729 13.6481 48.4375 14.0625 48.4375Z" fill="white"/>
<path d="M43.75 71.875H64.0625C64.4769 71.875 64.8743 71.7104 65.1674 71.4174C65.4604 71.1243 65.625 70.7269 65.625 70.3125C65.625 69.8981 65.4604 69.5007 65.1674 69.2076C64.8743 68.9146 64.4769 68.75 64.0625 68.75H43.75C43.3356 68.75 42.9382 68.9146 42.6451 69.2076C42.3521 69.5007 42.1875 69.8981 42.1875 70.3125C42.1875 70.7269 42.3521 71.1243 42.6451 71.4174C42.9382 71.7104 43.3356 71.875 43.75 71.875Z" fill="white"/>
<path d="M14.0625 57.8125H34.375C34.7894 57.8125 35.1868 57.6479 35.4799 57.3549C35.7729 57.0618 35.9375 56.6644 35.9375 56.25C35.9375 55.8356 35.7729 55.4382 35.4799 55.1451C35.1868 54.8521 34.7894 54.6875 34.375 54.6875H14.0625C13.6481 54.6875 13.2507 54.8521 12.9576 55.1451C12.6646 55.4382 12.5 55.8356 12.5 56.25C12.5 56.6644 12.6646 57.0618 12.9576 57.3549C13.2507 57.6479 13.6481 57.8125 14.0625 57.8125Z" fill="white"/>
<defs>
<linearGradient id="paint0_linear" x1="58.375" y1="20.3125" x2="58.375" y2="98.4375" gradientUnits="userSpaceOnUse">
<stop stop-color="#009FFF"/>
<stop offset="0.833333" stop-color="#FC466B"/>
</linearGradient>
</defs>
</svg>

<svg width="100" height="100" viewBox="0 0 100 100" fill="none" xmlns="http://www.w3.org/2000/svg"><g opacity=".6"><path d="M95.875 51.563H90.25a32.624 32.624 0 00-3.75-9.188l4-4a1.563 1.563 0 000-2.203l-8.844-8.844a1.563 1.563 0 00-2.203 0l-4 4a32.625 32.625 0 00-9.266-3.828v-5.625a1.563 1.563 0 00-1.562-1.563h-12.5a1.563 1.563 0 00-1.563 1.563V27.5a32.625 32.625 0 00-9.187 3.828l-4-4a1.563 1.563 0 00-2.203 0l-8.844 8.844a1.562 1.562 0 000 2.203l4 4a32.625 32.625 0 00-3.828 9.188h-5.625a1.563 1.563 0 00-1.563 1.562v12.5a1.563 1.563 0 001.563 1.563H26.5a32.625 32.625 0 003.828 9.187l-4 4a1.563 1.563 0 000 2.203l8.844 8.844a1.562 1.562 0 002.203 0l4-3.922a32.624 32.624 0 009.188 3.75v5.625a1.563 1.563 0 001.562 1.563h12.5a1.563 1.563 0 001.563-1.563V91.25a32.624 32.624 0 009.187-3.75l4 4a1.563 1.563 0 002.203 0l8.844-8.844a1.563 1.563 0 000-2.203L86.5 76.375a32.624 32.624 0 003.75-9.188h5.625a1.563 1.563 0 001.563-1.562v-12.5a1.563 1.563 0 00-1.563-1.563zm-37.5 20.312a12.5 12.5 0 110-25 12.5 12.5 0 010 25z" fill="#C4A2FC"/><path d="M95.875 51.563H90.25a32.624 32.624 0 00-3.75-9.188l4-4a1.563 1.563 0 000-2.203l-8.844-8.844a1.563 1.563 0 00-2.203 0l-4 4a32.625 32.625 0 00-9.266-3.828v-5.625a1.563 1.563 0 00-1.562-1.563h-12.5a1.563 1.563 0 00-1.563 1.563V27.5a32.625 32.625 0 00-9.187 3.828l-4-4a1.563 1.563 0 00-2.203 0l-8.844 8.844a1.562 1.562 0 000 2.203l4 4a32.625 32.625 0 00-3.828 9.188h-5.625a1.563 1.563 0 00-1.563 1.562v12.5a1.563 1.563 0 001.563 1.563H26.5a32.625 32.625 0 003.828 9.187l-4 4a1.563 1.563 0 000 2.203l8.844 8.844a1.562 1.562 0 002.203 0l4-3.922a32.624 32.624 0 009.188 3.75v5.625a1.563 1.563 0 001.562 1.563h12.5a1.563 1.563 0 001.563-1.563V91.25a32.624 32.624 0 009.187-3.75l4 4a1.563 1.563 0 002.203 0l8.844-8.844a1.563 1.563 0 000-2.203L86.5 76.375a32.624 32.624 0 003.75-9.188h5.625a1.563 1.563 0 001.563-1.562v-12.5a1.563 1.563 0 00-1.563-1.563zm-37.5 20.312a12.5 12.5 0 110-25 12.5 12.5 0 010 25z" fill="url(#paint0_linear)"/></g><path d="M73.438 1.563H4.688A4.687 4.687 0 000 6.25V75a4.688 4.688 0 004.688 4.688h68.75A4.688 4.688 0 0078.124 75V6.25a4.688 4.688 0 00-4.688-4.688zM75 75a1.563 1.563 0 01-1.563 1.563H4.688A1.563 1.563 0 013.125 75V15.625H75V75zm0-62.5H3.125V6.25a1.562 1.562 0 011.563-1.563h68.75A1.563 1.563 0 0175 6.25v6.25z" fill="#fff"/><path d="M43.75 54.688h20.313a1.563 1.563 0 001.562-1.563v-18.75a1.563 1.563 0 00-1.563-1.563H43.75a1.563 1.563 0 00-1.563 1.563v18.75a1.563 1.563 0 001.563 1.563zm1.563-18.75H62.5v15.624H45.312V35.938zm-31.25 4.687h20.312a1.563 1.563 0 001.563-1.563V21.875a1.563 1.563 0 00-1.563-1.563H14.062a1.563 1.563 0 00-1.562 1.563v17.188a1.563 1.563 0 001.563 1.562zm1.562-17.188h17.188V37.5H15.625V23.437zM43.75 62.5h20.313a1.563 1.563 0 000-3.125H43.75a1.563 1.563 0 000 3.125zM14.063 48.438h20.312a1.563 1.563 0 000-3.126H14.062a1.563 1.563 0 000 3.126zM43.75 71.875h20.313a1.563 1.563 0 000-3.125H43.75a1.563 1.563 0 000 3.125zM14.063 57.813h20.312a1.563 1.563 0 000-3.126H14.062a1.563 1.563 0 000 3.126z" fill="#fff"/><defs><linearGradient id="paint0_linear" x1="58.375" y1="20.313" x2="58.375" y2="98.438" gradientUnits="userSpaceOnUse"><stop stop-color="#009FFF"/><stop offset=".833" stop-color="#FC466B"/></linearGradient></defs></svg>
